assets/icons/panel-look-filled.svg

<?xml version="1.0" encoding="UTF-8" standalone="no"?>
<svg
   viewBox="0 0 24 24"
   height="24"
   id="svg7384"
   version="1.1"
   width="24"
   sodipodi:docname="panel-look-filled.svg"
   inkscape:version="1.2 (1:1.2.1+202207142221+cd75a1ee6d)"
   xmlns:inkscape="http://www.inkscape.org/namespaces/inkscape"
   xmlns:sodipodi="http://sodipodi.sourceforge.net/DTD/sodipodi-0.dtd"
   xmlns="http://www.w3.org/2000/svg"
   xmlns:svg="http://www.w3.org/2000/svg"
   xmlns:rdf="http://www.w3.org/1999/02/22-rdf-syntax-ns#"
   xmlns:cc="http://creativecommons.org/ns#"
   xmlns:dc="http://purl.org/dc/elements/1.1/">
  <sodipodi:namedview
     id="namedview22"
     pagecolor="#ffffff"
     bordercolor="#666666"
     borderopacity="1.0"
     inkscape:pageshadow="2"
     inkscape:pageopacity="0.0"
     inkscape:pagecheckerboard="0"
     showgrid="true"
     inkscape:snap-page="true"
     inkscape:zoom="6.9999825"
     inkscape:cx="-61.214439"
     inkscape:cy="10.214311"
     inkscape:window-width="1920"
     inkscape:window-height="1016"
     inkscape:window-x="0"
     inkscape:window-y="0"
     inkscape:window-maximized="1"
     inkscape:current-layer="svg7384"
     inkscape:showpageshadow="2"
     inkscape:deskcolor="#d1d1d1">
    <inkscape:grid
       type="xygrid"
       id="grid838" />
    <inkscape:grid
       type="xygrid"
       id="grid1693"
       dotted="true"
       spacingx="0.5"
       spacingy="0.5"
       empspacing="10" />
  </sodipodi:namedview>
  <metadata
     id="metadata20854">
    <rdf:RDF>
      <cc:Work
         rdf:about="">
        <dc:format>image/svg+xml</dc:format>
        <dc:type
           rdf:resource="http://purl.org/dc/dcmitype/StillImage" />
      </cc:Work>
    </rdf:RDF>
  </metadata>
  <defs
     id="defs7386">
    <linearGradient
       id="linearGradient5606"
       inkscape:swatch="solid">
      <stop
         id="stop5608"
         offset="0"
         style="stop-color:#000000;stop-opacity:1;" />
    </linearGradient>
    <linearGradient
       id="linearGradient4526"
       inkscape:swatch="solid">
      <stop
         id="stop4528"
         offset="0"
         style="stop-color:#ffffff;stop-opacity:1;" />
    </linearGradient>
    <linearGradient
       id="linearGradient3600-4"
       inkscape:swatch="gradient">
      <stop
         id="stop3602-7"
         offset="0"
         style="stop-color:#f4f4f4;stop-opacity:1" />
      <stop
         id="stop3604-6"
         offset="1"
         style="stop-color:#dbdbdb;stop-opacity:1" />
    </linearGradient>
  </defs>
  <g
     id="layer9"
     label="status"
     style="display:inline"
     transform="translate(-913.00016,-92.375023)" />
  <g
     id="layer2"
     style="display:inline"
     transform="translate(-671.99996,-459.37502)" />
  <g
     id="layer4"
     style="display:inline"
     transform="translate(-671.99996,-459.37502)" />
  <g
     id="g1812"
     style="display:inline"
     transform="translate(-671.99996,-459.37502)" />
  <g
     id="g6217"
     style="display:inline"
     transform="translate(-671.99996,-459.37502)" />
  <g
     id="g1833"
     style="display:inline"
     transform="translate(-671.99996,-459.37502)" />
  <g
     id="layer1"
     style="display:inline"
     transform="translate(-671.99996,-459.37502)" />
  <path
     id="path861"
     style="color:#000000;fill:#808080;fill-opacity:1"
     d="M 4.7871094 3 C 4.1101679 3.00559 3.5365038 3.048154 3.0273438 3.3027344 C 2.6879033 3.4724544 2.3973368 3.7651704 2.2304688 4.140625 C 2.0635993 4.5160796 2 4.9583369 2 5.5 L 2 15.5 C 2 16.04166 2.0636003 16.483918 2.2304688 16.859375 C 2.3973368 17.234832 2.6879033 17.527544 3.0273438 17.697266 C 3.7062243 18.036702 4.500007 18 5.5 18 L 18.5 18 C 19.499993 18 20.293777 18.036705 20.972656 17.697266 C 21.312099 17.527544 21.602661 17.234832 21.769531 16.859375 C 21.936401 16.483918 22 16.04166 22 15.5 L 22 5.5 C 22 4.9583369 21.9364 4.5160796 21.769531 4.140625 C 21.602661 3.7651704 21.312099 3.4724544 20.972656 3.3027344 C 20.293777 2.9632938 19.499993 3 18.5 3 L 5.5 3 C 5.2500011 3 5.0127569 2.99814 4.7871094 3 z M 4.3496094 4 L 19.650391 4 C 20.398284 4 21 4.5805868 21 5.3007812 L 21 15.699219 C 21 16.419412 20.398284 17 19.650391 17 L 4.3496094 17 C 3.6017149 17 3 16.419412 3 15.699219 L 3 5.3007812 C 3 4.5805868 3.6017149 4 4.3496094 4 z M 5.1992188 5 C 4.5344228 5 4 5.4902136 4 6.0996094 L 4 14.900391 C 4 15.509784 4.5344228 16 5.1992188 16 L 7 16 L 7 10.488281 L 7 5 L 5.1992188 5 z M 8 5 L 8 8.9296875 C 9.0409698 7.6746973 10.921964 5.9842028 13.503906 6 C 17.597659 6.025047 19.935547 10.253906 19.935547 10.253906 A 0.50005 0.50005 0 0 1 20 10.482422 L 20 6.0996094 C 20 5.4902136 19.46558 5 18.800781 5 L 8 5 z M 5 6 L 6 6 L 6 7 L 5 7 L 5 6 z M 13.496094 7 C 10.324418 6.9805948 8.372654 10.101639 8.1230469 10.511719 C 8.3449636 10.923001 10.063931 14 13.5 14 C 16.933917 14 18.651155 10.928274 18.875 10.513672 C 18.623318 10.104708 16.672112 7.019432 13.496094 7 z M 5 8 L 6 8 L 6 9 L 5 9 L 5 8 z M 13.5 8 A 2.5 2.5 0 0 1 14.236328 8.1113281 A 1.25 1.25 0 0 0 13.5 9.25 A 1.25 1.25 0 0 0 14.75 10.5 A 1.25 1.25 0 0 0 15.888672 9.7636719 A 2.5 2.5 0 0 1 16 10.5 A 2.5 2.5 0 0 1 13.5 13 A 2.5 2.5 0 0 1 11 10.5 A 2.5 2.5 0 0 1 13.5 8 z M 5 10 L 6 10 L 6 11 L 5 11 L 5 10 z M 20 10.509766 A 0.50005 0.50005 0 0 1 19.947266 10.722656 C 19.947266 10.722656 17.833321 15 13.5 15 C 10.833979 15 9.0104266 13.382615 8 12.136719 L 8 16 L 18.800781 16 C 19.46558 16 20 15.509784 20 14.900391 L 20 10.509766 z M 5 12 L 6 12 L 6 13 L 5 13 L 5 12 z M 5 14 L 6 14 L 6 15 L 5 15 L 5 14 z " />
  <path
     style="color:#000000;fill:#808080;fill-opacity:1"
     d="m 9,18.998839 v 0.125 c 0,1.874992 -0.6250049,1.875 -1.875,1.875 h -1.125 v 1 h 12 v -1 h -1.125 c -1.249995,0 -1.875,-8e-6 -1.875,-1.875 v -0.125 z"
     id="path790" />
</svg>

<svg height="24" width="24" xmlns="http://www.w3.org/2000/svg"><path style="color:#000;fill:gray;fill-opacity:1" d="M4.787 3c-.677.006-1.25.048-1.76.303-.34.17-.63.462-.797.838C2.064 4.516 2 4.958 2 5.5v10c0 .542.064.984.23 1.36.167.375.458.668.797.837.68.34 1.473.303 2.473.303h13c1 0 1.794.037 2.473-.303.34-.17.63-.462.797-.838.166-.375.23-.817.23-1.359v-10c0-.542-.064-.984-.23-1.36a1.72 1.72 0 0 0-.797-.837C20.293 2.963 19.5 3 18.5 3h-13c-.25 0-.487-.002-.713 0zM4.35 4h15.3c.748 0 1.35.58 1.35 1.3v10.4c0 .72-.602 1.3-1.35 1.3H4.35C3.602 17 3 16.42 3 15.7V5.3C3 4.58 3.602 4 4.35 4zm.85 1C4.533 5 4 5.49 4 6.1v8.8c0 .61.534 1.1 1.2 1.1H7V5H5.2zM8 5v3.93C9.041 7.675 10.922 5.984 13.504 6c4.094.025 6.432 4.254 6.432 4.254a.5.5 0 0 1 .064.228V6.1c0-.61-.534-1.1-1.2-1.1H8zM5 6h1v1H5V6zm8.496 1c-3.172-.02-5.123 3.102-5.373 3.512.222.411 1.94 3.488 5.377 3.488 3.434 0 5.151-3.072 5.375-3.486-.252-.41-2.203-3.495-5.379-3.514zM5 8h1v1H5V8zm8.5 0a2.5 2.5 0 0 1 .736.111A1.25 1.25 0 0 0 13.5 9.25a1.25 1.25 0 0 0 1.25 1.25 1.25 1.25 0 0 0 1.139-.736A2.5 2.5 0 0 1 16 10.5a2.5 2.5 0 0 1-2.5 2.5 2.5 2.5 0 0 1-2.5-2.5A2.5 2.5 0 0 1 13.5 8zM5 10h1v1H5v-1zm15 .51a.5.5 0 0 1-.053.213S17.833 15 13.5 15c-2.666 0-4.49-1.617-5.5-2.863V16h10.8c.666 0 1.2-.49 1.2-1.1v-4.39zM5 12h1v1H5v-1zm0 2h1v1H5v-1zm4 4.999v.125c0 1.875-.625 1.875-1.875 1.875H6v1h12v-1h-1.125c-1.25 0-1.875 0-1.875-1.875v-.125z"/></svg>
